data/icons/nl.emphisia.icon-symbolic.svg

<?xml version="1.0" encoding="UTF-8" standalone="no"?>
<svg
   height="16px"
   viewBox="0 0 16 16"
   width="16px"
   version="1.1"
   id="svg9"
   sodipodi:docname="nl.emphisia.icon-symbolic.svg"
   inkscape:version="1.4 (e7c3feb100, 2024-10-09)"
   xmlns:inkscape="http://www.inkscape.org/namespaces/inkscape"
   xmlns:sodipodi="http://sodipodi.sourceforge.net/DTD/sodipodi-0.dtd"
   xmlns="http://www.w3.org/2000/svg"
   xmlns:svg="http://www.w3.org/2000/svg">
  <defs
     id="defs9" />
  <sodipodi:namedview
     id="namedview9"
     pagecolor="#505050"
     bordercolor="#eeeeee"
     borderopacity="1"
     inkscape:showpageshadow="0"
     inkscape:pageopacity="0"
     inkscape:pagecheckerboard="0"
     inkscape:deskcolor="#505050"
     inkscape:zoom="51.265242"
     inkscape:cx="14.688315"
     inkscape:cy="6.8857571"
     inkscape:window-width="2560"
     inkscape:window-height="1371"
     inkscape:window-x="0"
     inkscape:window-y="0"
     inkscape:window-maximized="1"
     inkscape:current-layer="svg9" />
  <filter
     id="a"
     height="1"
     width="1"
     x="0"
     y="0">
    <feColorMatrix
       color-interpolation-filters="sRGB"
       values="0 0 0 0 1 0 0 0 0 1 0 0 0 0 1 0 0 0 1 0"
       id="feColorMatrix1" />
  </filter>
  <mask
     id="b">
    <g
       filter="url(#a)"
       id="g1">
      <rect
         fill-opacity="0.508475"
         height="19.2"
         width="19.2"
         x="-1.6"
         y="-1.6"
         id="rect1" />
    </g>
  </mask>
  <clipPath
     id="c">
    <rect
       height="152"
       width="192"
       id="rect2" />
  </clipPath>
  <mask
     id="d">
    <g
       filter="url(#a)"
       id="g3">
      <rect
         fill-opacity="0.505085"
         height="19.2"
         width="19.2"
         x="-1.6"
         y="-1.6"
         id="rect3" />
    </g>
  </mask>
  <clipPath
     id="e">
    <rect
       height="152"
       width="192"
       id="rect4" />
  </clipPath>
  <path
     d="m 14.867023,1.6918824 c -0.265625,0 -0.519531,0.1054687 -0.703125,0.2929688 h -0.0039 L 7.867023,8.3012574 v 1.3906253 h 1.390625 l 6.316406,-6.2929691 -0.0039,-0.00391 c 0.1914,-0.1835902 0.296869,-0.4374962 0.296869,-0.7031212 0,-0.550781 -0.449219,-1 -1,-1 z"
     style="fill:#222222;fill-opacity:1"
     id="path4" />
  <path
     d="m 2.035156 4.371094 v 0.882812 h 6.78125 v -0.882812 z m 0 0"
     id="path7"
     style="fill:#222222;fill-opacity:1" />
  <path
     id="path8"
     style="fill:#222222;fill-opacity:1"
     d="M 3.7304688 1.71875 C 2.3359378 1.71875 1.1875 2.9179688 1.1875 4.3710938 L 1.1875 11.441406 C 1.1875 12.894531 2.3359378 14.09375 3.7304688 14.09375 L 12.207031 14.09375 C 13.601562 14.09375 14.75 12.894531 14.75 11.441406 L 14.75 6.140625 C 14.75 5.8128261 14.690426 5.4997209 14.583984 5.2109375 L 13.054688 6.7363281 L 13.054688 11.441406 C 13.054688 11.941406 12.683594 12.328125 12.207031 12.328125 L 3.7304688 12.328125 C 3.2539057 12.328125 2.8828125 11.941406 2.8828125 11.441406 L 2.8828125 4.3710938 C 2.8828125 3.8749998 3.2539057 3.4882813 3.7304688 3.4882812 L 6.7695312 3.4882812 L 8.2148438 4.9960938 C 8.3749998 5.1601558 8.5898442 5.2539063 8.8164062 5.2539062 L 10.076172 5.2539062 L 11.835938 3.4882812 L 9.1679688 3.4882812 L 7.7226562 1.9804688 C 7.5625003 1.8124997 7.3476558 1.71875 7.1210938 1.71875 L 3.7304688 1.71875 z " />
</svg>

<?xml version="1.0" encoding="UTF-8"?>
<svg height="16px" viewBox="0 0 16 16" width="16px" xmlns="http://www.w3.org/2000/svg" xmlns:xlink="http://www.w3.org/1999/xlink">
    <filter id="a" height="100%" width="100%" x="0%" y="0%">
        <feColorMatrix color-interpolation-filters="sRGB" values="0 0 0 0 1 0 0 0 0 1 0 0 0 0 1 0 0 0 1 0"/>
    </filter>
    <mask id="b">
        <g filter="url(#a)">
            <rect fill-opacity="0.508475" height="19.2" width="19.2" x="-1.6" y="-1.6"/>
        </g>
    </mask>
    <clipPath id="c">
        <rect height="152" width="192"/>
    </clipPath>
    <mask id="d">
        <g filter="url(#a)">
            <rect fill-opacity="0.505085" height="19.2" width="19.2" x="-1.6" y="-1.6"/>
        </g>
    </mask>
    <clipPath id="e">
        <rect height="152" width="192"/>
    </clipPath>
    <g mask="url(#b)">
        <g clip-path="url(#c)" transform="matrix(1 0 0 1 -168 -16)">
            <path d="m 62.050781 78.90625 c -2.101562 0 -3.820312 1.78125 -3.820312 3.964844 s 1.71875 3.964844 3.820312 3.964844 c 2.105469 0 3.824219 -1.78125 3.824219 -3.964844 s -1.71875 -3.964844 -3.824219 -3.964844 z m 13.375 11.894531 l -7.640625 7.929688 l -5.734375 -3.964844 l -7.640625 7.925781 v 1.984375 c 0 1.980469 1.910156 1.980469 1.910156 1.980469 h 26.75 s 1.804688 -0.136719 1.910157 -1.980469 v -3.964843 z m 0 0" fill="#438de6"/>
        </g>
    </g>
    <g mask="url(#d)">
        <g clip-path="url(#e)" transform="matrix(1 0 0 1 -168 -16)">
            <path d="m 54.410156 63.050781 c -6.285156 0 -11.464844 5.375 -11.464844 11.890625 v 31.714844 c 0 6.519531 5.179688 11.894531 11.464844 11.894531 h 30.570313 c 6.285156 0 11.464843 -5.375 11.464843 -11.894531 v -31.714844 c 0 -6.515625 -5.179687 -11.890625 -11.464843 -11.890625 z m 0 7.929688 h 30.570313 c 2.179687 0 3.820312 1.703125 3.820312 3.960937 v 31.714844 c 0 2.261719 -1.640625 3.964844 -3.820312 3.964844 h -30.570313 c -2.179687 0 -3.820312 -1.703125 -3.820312 -3.964844 v -31.714844 c 0 -2.257812 1.640625 -3.960937 3.820312 -3.960937 z m 0 0" fill="#438de6"/>
        </g>
    </g>
    <path d="m 2.035156 4.371094 v 0.882812 h 6.78125 v -0.882812 z m 0 0"/>
    <path d="m 3.730469 1.71875 c -1.394531 0 -2.542969 1.199219 -2.542969 2.652344 v 7.070312 c 0 1.453125 1.148438 2.652344 2.542969 2.652344 h 8.476562 c 1.394531 0 2.542969 -1.199219 2.542969 -2.652344 v -5.300781 c 0 -0.480469 -0.125 -0.929687 -0.34375 -1.316406 l -1.351562 1.351562 v 5.265625 c 0 0.5 -0.371094 0.886719 -0.847657 0.886719 h -8.476562 c -0.476563 0 -0.847657 -0.386719 -0.847657 -0.886719 v -7.070312 c 0 -0.496094 0.371094 -0.882813 0.847657 -0.882813 h 3.039062 l 1.445313 1.507813 c 0.160156 0.164062 0.375 0.257812 0.601562 0.257812 h 1.761719 l 1.761719 -1.757812 c -0.046875 -0.003906 -0.089844 -0.007813 -0.132813 -0.007813 h -3.039062 l -1.445313 -1.507812 c -0.160156 -0.167969 -0.375 -0.261719 -0.601562 -0.261719 z m 0 0"/>
    <path d="m 8.25 9.328125 h 1.292969 l 5.816406 -5.816406 l -1.292969 -1.292969 l -5.816406 5.816406 z m 0 0"/>
</svg>
